; generated by PrusaSlicer 2.4.1+arm64 on 2022-05-11 at 08:54:32 UTC

; 

; external perimeters extrusion width = 0.60mm
; perimeters extrusion width = 0.50mm
; infill extrusion width = 0.50mm
; solid infill extrusion width = 0.50mm
; top infill extrusion width = 0.45mm
; first layer extrusion width = 0.42mm

M73 P0 R98
M73 Q0 S98
M201 X1000 Y1000 Z200 E5000 ; sets maximum accelerations, mm/sec^2
M203 X200 Y200 Z12 E120 ; sets maximum feedrates, mm / sec
M204 P1250 R1250 T1250 ; sets acceleration (P, T) and retract acceleration (R), mm/sec^2
M205 X8.00 Y8.00 Z0.40 E4.50 ; sets the jerk limits, mm/sec
M205 S0 T0 ; sets the minimum extruding and travel feed rate, mm/sec
M107
;TYPE:Custom
M862.3 P "MK3S" ; printer model check
M862.1 P0.4 ; nozzle diameter check
M115 U3.10.1 ; tell printer latest fw version
G90 ; use absolute coordinates
M83 ; extruder relative mode
M104 S240 ; set extruder temp
M140 S85 ; set bed temp
M190 S85 ; wait for bed temp
M109 S240 ; wait for extruder temp
G28 W ; home all without mesh bed level
G80 ; mesh bed leveling
G1 Z0.2 F720
G1 Y-3 F1000 ; go outside print area
G92 E0
G1 X60 E9 F1000 ; intro line
G1 X100 E12.5 F1000 ; intro line
G92 E0
M221 S95

; Don't change E values below. Excessive value can damage the printer.

M907 E538 ; set extruder motor current
G21 ; set units to millimeters
G90 ; use absolute coordinates
M83 ; use relative distances for extrusion
M900 K0.08 ; Filament gcode LA 1.5
M900 K45 ; Filament gcode LA 1.0
M107
;LAYER_CHANGE
;Z:0.2
;HEIGHT:0.2
;BEFORE_LAYER_CHANGE
G92 E0.0
;0.2


G1 E-1 F2100
G1 Z.2 F720
;AFTER_LAYER_CHANGE
;0.2
G1 Z.4
G1 X84.669 Y66.384 F10800
G1 Z.2 F720
G1 E1 F2100
M204 S800
;TYPE:Skirt/Brim
;WIDTH:0.42
G1 F1200
G1 X86.287 Y64.403 E.08018
G1 X88.155 Y62.585 E.08173
G1 X90.131 Y61.061 E.07826
G1 X91.451 Y60.225 E.04897
G1 X92.894 Y59.455 E.05129
G1 X95.243 Y58.48 E.07975
G1 X97.596 Y57.811 E.07669
G1 X99.996 Y57.416 E.07628
G1 X102.358 Y57.292 E.07414
G1 X147.642 Y57.292 E1.41987
G1 X149.279 Y57.35 E.05134
G1 X151.612 Y57.65 E.07377
G1 X153.282 Y58.027 E.05366
G1 X154.842 Y58.51 E.05122
G1 X156.364 Y59.112 E.05131
G1 X158.471 Y60.18 E.07405
G1 X159.943 Y61.112 E.05464
G1 X161.274 Y62.108 E.05212
G1 X163.068 Y63.727 E.07579
G1 X164.217 Y64.973 E.05312
G1 X165.331 Y66.384 E.05636
G1 X166.294 Y67.812 E.05401
G1 X167.514 Y70.026 E.07928
G1 X168.227 Y71.643 E.05538
G1 X168.856 Y73.411 E.05885
G1 X169.34 Y75.164 E.05701
G1 X169.695 Y76.911 E.0559
G1 X169.927 Y78.662 E.05541
G1 X170.06 Y81.22 E.08031
G1 X170.009 Y83.001 E.05587
G1 X167.171 Y114.511 E.99197
G1 X166.915 Y116.571 E.06509
G1 X166.552 Y118.654 E.06627
G1 X166.056 Y120.83 E.06999
G1 X164.847 Y124.756 E.1288
G1 X164.033 Y126.834 E.06999
G1 X163.162 Y128.76 E.06627
G1 X162.195 Y130.64 E.06627
G1 X161.137 Y132.469 E.06627
G1 X159.988 Y134.244 E.06627
G1 X158.752 Y135.959 E.06627
G1 X157.433 Y137.61 E.06627
G1 X156.032 Y139.193 E.06627
G1 X154.555 Y140.705 E.06628
G1 X153.004 Y142.141 E.06627
G1 X151.383 Y143.498 E.06627
G1 X149.697 Y144.772 E.06627
G1 X147.949 Y145.961 E.06627
G1 X146.144 Y147.061 E.06627
G1 X144.286 Y148.069 E.06628
G1 X142.381 Y148.984 E.06627
G1 X140.432 Y149.803 E.06627
G1 X138.445 Y150.523 E.06628
G1 X136.424 Y151.143 E.06627
G1 X134.375 Y151.662 E.06628
G1 X132.303 Y152.078 E.06627
G1 X130.212 Y152.391 E.06627
G1 X128.109 Y152.598 E.06627
G1 X125.998 Y152.701 E.06627
G1 X123.884 Y152.698 E.06627
G1 X119.788 Y152.391 E.12879
G1 X117.697 Y152.078 E.06627
G1 X115.625 Y151.662 E.06627
G1 X113.576 Y151.143 E.06628
G1 X111.555 Y150.523 E.06627
G1 X109.568 Y149.803 E.06628
G1 X107.619 Y148.984 E.06627
G1 X105.714 Y148.069 E.06627
G1 X103.856 Y147.06 E.06628
G1 X102.051 Y145.961 E.06627
G1 X100.303 Y144.772 E.06628
G1 X98.524 Y143.424 E.06999
G1 X96.907 Y142.062 E.06627
G1 X95.36 Y140.622 E.06627
G1 X93.887 Y139.106 E.06628
G1 X92.491 Y137.519 E.06627
G1 X91.176 Y135.864 E.06627
G1 X89.945 Y134.146 E.06627
G1 X87.979 Y130.942 E.11785
G1 X86.838 Y128.76 E.07721
G1 X85.967 Y126.834 E.06627
G1 X85.193 Y124.867 E.06628
G1 X84.518 Y122.864 E.06627
G1 X83.944 Y120.83 E.06627
G1 X83.471 Y118.77 E.06627
G1 X83.102 Y116.689 E.06627
G1 X82.838 Y114.591 E.06627
G1 X79.991 Y83.001 E.9945
G1 X79.94 Y81.298 E.05344
G1 X80 Y79.534 E.05533
G1 X80.319 Y76.829 E.08539
G1 X80.679 Y75.083 E.0559
G1 X81.144 Y73.411 E.05443
G1 X82.082 Y70.904 E.08392
G1 X83.262 Y68.557 E.08237
G1 X84.637 Y66.434 E.0793
M204 S1000
; printing object Medved v2 id:0 copy 0
;WIPE_START
G1 F8640
G1 X86.287 Y64.403 E-.60426
G1 X87.36 Y63.359 E-.34574
;WIPE_END
G1 E-.05 F2100
G1 Z.4 F720
G1 X88.183 Y96.338 F10800
G1 Z.2 F720
G1 E1 F2100
M204 S800
;TYPE:Perimeter
G1 F1200
G1 X87.586 Y95.513 E.03193
G1 X87.143 Y94.858 E.02481
G1 X86.719 Y94.183 E.025
G1 X86.313 Y93.49 E.02515
G1 X85.929 Y92.782 E.02528
G1 X85.566 Y92.059 E.02537
G1 X85.226 Y91.323 E.02541
G1 X84.909 Y90.577 E.02541
G1 X84.618 Y89.823 E.02534
G1 X84.352 Y89.064 E.02522
G1 X84.114 Y88.303 E.02501
G1 X83.902 Y87.541 E.02479
G1 X83.715 Y86.772 E.02483
G1 X83.552 Y85.995 E.02487
G1 X83.301 Y84.425 E.04986
G1 X83.213 Y83.635 E.02493
G1 X83.151 Y82.843 E.02489
G1 X83.115 Y82.054 E.02477
G1 X83.104 Y81.268 E.02465
G1 X83.119 Y80.486 E.02451
G1 X83.16 Y79.711 E.02434
G1 X83.225 Y78.941 E.02422
G1 X83.315 Y78.173 E.02427
G1 X83.432 Y77.397 E.02459
G1 X83.574 Y76.637 E.02426
G1 X83.746 Y75.863 E.02484
G1 X83.947 Y75.087 E.02515
G1 X84.173 Y74.325 E.02492
G1 X84.424 Y73.579 E.02468
G1 X84.698 Y72.849 E.02445
G1 X84.996 Y72.136 E.02421
G1 X85.317 Y71.44 E.02404
G1 X85.66 Y70.76 E.02389
G1 X86.026 Y70.097 E.02374
G1 X86.413 Y69.452 E.02359
G1 X86.82 Y68.825 E.02345
G1 X87.248 Y68.217 E.02332
G1 X87.696 Y67.628 E.02321
G1 X88.163 Y67.058 E.02308
G1 X88.648 Y66.511 E.02293
G1 X89.149 Y65.985 E.02277
G1 X89.665 Y65.482 E.0226
G1 X90.197 Y65.003 E.02245
G1 X90.745 Y64.544 E.02242
G1 X91.309 Y64.107 E.02237
G1 X91.887 Y63.693 E.02229
G1 X92.478 Y63.303 E.02218
G1 X93.079 Y62.938 E.02207
G1 X93.69 Y62.599 E.02191
G1 X94.311 Y62.284 E.02183
G1 X94.945 Y61.992 E.02188
G1 X95.59 Y61.725 E.02191
G1 X96.245 Y61.482 E.02189
G1 X96.907 Y61.264 E.02186
G1 X97.576 Y61.072 E.0218
G1 X98.248 Y60.907 E.0217
G1 X98.923 Y60.768 E.0216
G1 X99.606 Y60.655 E.02171
G1 X100.296 Y60.566 E.02182
G1 X100.992 Y60.503 E.0219
G1 X101.69 Y60.466 E.02194
G1 X102.391 Y60.456 E.02196
G1 X103.091 Y60.471 E.02195
G1 X103.786 Y60.513 E.02186
G1 X104.483 Y60.581 E.02195
G1 X105.183 Y60.675 E.02212
G1 X105.882 Y60.795 E.02227
G1 X106.581 Y60.941 E.02238
G1 X107.277 Y61.113 E.02247
G1 X107.967 Y61.311 E.02252
G1 X108.65 Y61.534 E.02251
G1 X109.326 Y61.781 E.02257
G1 X109.998 Y62.055 E.02275
G1 X110.665 Y62.354 E.02292
G1 X111.325 Y62.678 E.02306
G1 X111.977 Y63.027 E.02318
G1 X112.618 Y63.4 E.02326
G1 X113.247 Y63.795 E.02328
G1 X113.864 Y64.214 E.02339
G1 X114.472 Y64.657 E.02357
G1 X115.068 Y65.123 E.02374
G1 X115.652 Y65.611 E.02387
G1 X116.221 Y66.121 E.02397
G1 X116.775 Y66.651 E.02402
G1 X117.311 Y67.201 E.02407
G1 X117.831 Y67.77 E.02417
G1 X118.334 Y68.358 E.02426
G1 X118.819 Y68.965 E.02437
G1 X119.287 Y69.59 E.02447
G1 X119.735 Y70.231 E.02453
G1 X120.472 Y71.372 E.04261
G1 X122.574 Y71.198 E.0661
G1 X124.191 Y71.132 E.05075
G1 X125.809 Y71.132 E.05075
G1 X127.426 Y71.198 E.05075
G1 X129.528 Y71.372 E.0661
G1 X130.265 Y70.231 E.04261
G1 X130.713 Y69.59 E.02453
G1 X131.181 Y68.965 E.02447
G1 X131.666 Y68.358 E.02437
G1 X132.169 Y67.77 E.02426
G1 X132.689 Y67.201 E.02417
G1 X133.225 Y66.651 E.02407
G1 X133.779 Y66.121 E.02402
G1 X134.348 Y65.611 E.02397
G1 X134.932 Y65.123 E.02387
G1 X135.528 Y64.657 E.02374
G1 X136.136 Y64.214 E.02357
G1 X136.753 Y63.795 E.02339
G1 X137.382 Y63.4 E.02328
G1 X138.023 Y63.027 E.02326
G1 X138.675 Y62.678 E.02318
G1 X139.335 Y62.354 E.02306
G1 X140.002 Y62.055 E.02292
G1 X140.674 Y61.781 E.02275
G1 X141.35 Y61.534 E.02257
G1 X142.033 Y61.311 E.02251
G1 X142.723 Y61.113 E.02252
G1 X143.419 Y60.941 E.02247
G1 X144.118 Y60.795 E.02238
G1 X144.817 Y60.675 E.02227
G1 X145.517 Y60.581 E.02212
G1 X146.214 Y60.513 E.02195
G1 X146.909 Y60.471 E.02186
G1 X147.609 Y60.456 E.02195
G1 X148.277 Y60.466 E.02095
G1 X149.009 Y60.503 E.02297
G1 X149.704 Y60.566 E.02188
G1 X150.394 Y60.655 E.02182
G1 X151.077 Y60.768 E.02171
G1 X151.752 Y60.907 E.0216
G1 X152.424 Y61.072 E.0217
G1 X153.093 Y61.264 E.0218
G1 X153.755 Y61.482 E.02186
G1 X154.41 Y61.725 E.0219
G1 X155.055 Y61.992 E.0219
G1 X155.689 Y62.284 E.02188
G1 X156.31 Y62.599 E.02182
G1 X156.921 Y62.938 E.02192
G1 X157.522 Y63.303 E.02207
G1 X158.113 Y63.693 E.02218
G1 X158.691 Y64.107 E.02229
G1 X159.255 Y64.544 E.02237
G1 X159.803 Y65.003 E.02242
G1 X160.335 Y65.482 E.02245
G1 X160.851 Y65.985 E.0226
G1 X161.352 Y66.511 E.02277
G1 X161.837 Y67.058 E.02293
G1 X162.304 Y67.628 E.02308
G1 X162.752 Y68.217 E.02321
G1 X163.18 Y68.825 E.02332
G1 X163.587 Y69.452 E.02345
G1 X163.974 Y70.097 E.02359
G1 X164.34 Y70.76 E.02373
G1 X164.683 Y71.44 E.02389
G1 X165.004 Y72.136 E.02404
G1 X165.302 Y72.849 E.02421
G1 X165.576 Y73.579 E.02445
G1 X165.827 Y74.325 E.02468
G1 X166.053 Y75.087 E.02492
G1 X166.254 Y75.863 E.02515
G1 X166.426 Y76.637 E.02484
G1 X166.568 Y77.397 E.02426
G1 X166.685 Y78.173 E.02459
G1 X166.775 Y78.941 E.02427
G1 X166.84 Y79.711 E.02422
G1 X166.881 Y80.486 E.02434
G1 X166.896 Y81.268 E.02451
G1 X166.885 Y82.054 E.02465
G1 X166.849 Y82.843 E.02477
G1 X166.787 Y83.635 E.02489
G1 X166.699 Y84.426 E.02495
G1 X166.586 Y85.213 E.02493
G1 X166.448 Y85.995 E.02491
G1 X166.285 Y86.772 E.02487
G1 X166.098 Y87.541 E.02483
G1 X165.886 Y88.303 E.02479
G1 X165.648 Y89.064 E.02501
G1 X165.382 Y89.823 E.02522
G1 X165.091 Y90.577 E.02534
G1 X164.774 Y91.323 E.02541
G1 X164.434 Y92.059 E.02541
G1 X164.071 Y92.782 E.02537
G1 X163.687 Y93.49 E.02528
G1 X163.281 Y94.183 E.02515
G1 X162.857 Y94.858 E.025
G1 X162.414 Y95.513 E.02481
G1 X161.703 Y96.495 E.03802
G1 X162.463 Y98.752 E.07466
G1 X162.994 Y100.634 E.06133
G1 X163.43 Y102.541 E.06132
G1 X163.771 Y104.467 E.06133
G1 X164.015 Y106.408 E.06132
G1 X164.163 Y108.358 E.06133
G1 X164.213 Y110.313 E.06133
G1 X164.165 Y112.269 E.06133
G1 X164.02 Y114.219 E.06133
G1 X163.778 Y116.16 E.06133
G1 X163.439 Y118.086 E.06133
G1 X163.005 Y119.993 E.06133
G1 X162.476 Y121.877 E.06133
G1 X161.854 Y123.731 E.06133
G1 X161.14 Y125.552 E.06133
G1 X160.336 Y127.335 E.06132
G1 X159.445 Y129.076 E.06133
G1 X158.468 Y130.77 E.06133
G1 X157.407 Y132.414 E.06133
G1 X156.266 Y134.002 E.06133
G1 X155.047 Y135.532 E.06133
G1 X153.753 Y136.999 E.06133
G1 X152.388 Y138.399 E.06133
G1 X150.954 Y139.73 E.06133
G1 X149.456 Y140.988 E.06133
G1 X147.897 Y142.169 E.06133
G1 X146.282 Y143.271 E.06133
G1 X144.613 Y144.291 E.06133
G1 X142.895 Y145.227 E.06133
G1 X141.133 Y146.076 E.06133
G1 X139.331 Y146.836 E.06133
G1 X137.493 Y147.505 E.06133
G1 X135.624 Y148.082 E.06133
G1 X133.729 Y148.565 E.06133
G1 X131.812 Y148.952 E.06133
G1 X129.878 Y149.244 E.06133
G1 X127.931 Y149.439 E.06133
G1 X125.978 Y149.536 E.06133
G1 X124.022 Y149.536 E.06133
G1 X122.069 Y149.439 E.06133
G1 X120.122 Y149.244 E.06133
G1 X118.188 Y148.952 E.06133
G1 X116.271 Y148.565 E.06133
G1 X114.376 Y148.082 E.06133
G1 X112.507 Y147.505 E.06133
G1 X110.669 Y146.836 E.06133
G1 X108.867 Y146.076 E.06133
G1 X107.105 Y145.227 E.06133
G1 X105.387 Y144.291 E.06133
G1 X103.718 Y143.271 E.06133
G1 X102.103 Y142.169 E.06133
G1 X100.544 Y140.988 E.06133
G1 X99.046 Y139.73 E.06133
G1 X97.612 Y138.399 E.06133
M73 P0 R97
G1 X96.247 Y136.999 E.06133
G1 X94.953 Y135.532 E.06133
G1 X93.734 Y134.002 E.06133
G1 X92.593 Y132.414 E.06133
G1 X91.532 Y130.77 E.06133
G1 X90.555 Y129.076 E.06133
G1 X89.664 Y127.335 E.06133
G1 X88.86 Y125.552 E.06132
G1 X88.146 Y123.731 E.06133
G1 X87.524 Y121.877 E.06133
G1 X86.995 Y119.993 E.06133
G1 X86.582 Y118.178 E.05837
G1 X86.222 Y116.159 E.0643
G1 X85.98 Y114.219 E.06131
G1 X85.835 Y112.269 E.06133
G1 X85.787 Y110.313 E.06133
G1 X85.837 Y108.358 E.06133
G1 X85.985 Y106.408 E.06133
G1 X86.229 Y104.467 E.06132
G1 X86.57 Y102.541 E.06133
G1 X87.006 Y100.634 E.06132
G1 X87.537 Y98.752 E.06133
G1 X88.297 Y96.495 E.07466
G1 X88.219 Y96.387 E.00421
M204 S1000
G1 X87.878 Y96.559 F10800
M204 S800
;TYPE:External perimeter
G1 F1200
G1 X87.277 Y95.729 E.03212
G1 X86.827 Y95.064 E.02519
G1 X86.396 Y94.379 E.02538
G1 X85.985 Y93.676 E.02553
G1 X85.595 Y92.956 E.02566
G1 X85.226 Y92.223 E.02575
G1 X84.881 Y91.476 E.02579
G1 X84.56 Y90.719 E.02579
G1 X84.264 Y89.953 E.02573
G1 X83.995 Y89.183 E.0256
G1 X83.752 Y88.41 E.0254
G1 X83.537 Y87.636 E.02517
G1 X83.347 Y86.855 E.02521
G1 X83.182 Y86.067 E.02525
G1 X82.927 Y84.473 E.0506
G1 X82.838 Y83.67 E.02532
G1 X82.775 Y82.867 E.02528
G1 X82.738 Y82.065 E.02515
G1 X82.727 Y81.267 E.02503
G1 X82.742 Y80.473 E.0249
G1 X82.783 Y79.685 E.02473
G1 X82.849 Y78.904 E.0246
G1 X82.941 Y78.123 E.02466
G1 X83.06 Y77.334 E.02499
G1 X83.205 Y76.561 E.02467
G1 X83.379 Y75.775 E.02525
G1 X83.584 Y74.986 E.02556
G1 X83.814 Y74.211 E.02534
G1 X84.069 Y73.452 E.0251
G1 X84.348 Y72.71 E.02487
G1 X84.651 Y71.985 E.02464
G1 X84.977 Y71.276 E.02447
G1 X85.327 Y70.584 E.02432
G1 X85.699 Y69.909 E.02416
G1 X86.093 Y69.252 E.02402
G1 X86.508 Y68.614 E.02388
G1 X86.944 Y67.994 E.02375
G1 X87.4 Y67.394 E.02364
G1 X87.876 Y66.814 E.02352
G1 X88.37 Y66.256 E.02337
G1 X88.881 Y65.72 E.02321
G1 X89.408 Y65.207 E.02305
G1 X89.95 Y64.718 E.02289
G1 X90.509 Y64.25 E.02286
G1 X91.084 Y63.805 E.02281
G1 X91.673 Y63.382 E.02273
G1 X92.276 Y62.985 E.02263
G1 X92.89 Y62.612 E.02252
G1 X93.513 Y62.266 E.02237
G1 X94.147 Y61.945 E.02227
G1 X94.794 Y61.647 E.02233
G1 X95.452 Y61.374 E.02235
G1 X96.12 Y61.126 E.02235
G1 X96.796 Y60.903 E.02231
G1 X97.479 Y60.708 E.02225
G1 X98.165 Y60.539 E.02215
G1 X98.854 Y60.398 E.02205
G1 X99.551 Y60.281 E.02216
G1 X100.255 Y60.191 E.02226
G1 X100.965 Y60.127 E.02234
G1 X101.678 Y60.089 E.02239
G1 X102.392 Y60.078 E.0224
G1 X103.106 Y60.094 E.02239
G1 X103.816 Y60.137 E.0223
G1 X104.527 Y60.206 E.02239
G1 X105.24 Y60.302 E.02255
G1 X105.953 Y60.424 E.0227
G1 X106.665 Y60.573 E.02281
G1 X107.374 Y60.749 E.0229
G1 X108.078 Y60.95 E.02295
G1 X108.773 Y61.177 E.02293
G1 X109.462 Y61.429 E.02299
G1 X110.146 Y61.708 E.02317
G1 X110.825 Y62.013 E.02334
G1 X111.497 Y62.343 E.02348
G1 X112.161 Y62.698 E.02359
G1 X112.813 Y63.077 E.02367
G1 X113.453 Y63.479 E.02368
G1 X114.081 Y63.905 E.0238
G1 X114.699 Y64.355 E.02397
G1 X115.306 Y64.829 E.02413
G1 X115.899 Y65.326 E.02426
G1 X116.478 Y65.845 E.02436
G1 X117.04 Y66.383 E.02442
G1 X117.585 Y66.942 E.02446
G1 X118.113 Y67.52 E.02456
G1 X118.624 Y68.117 E.02465
G1 X119.118 Y68.734 E.02475
G1 X119.592 Y69.369 E.02485
G1 X120.048 Y70.021 E.02494
G1 X120.667 Y70.978 E.03574
G1 X122.55 Y70.822 E.05926
G1 X124.183 Y70.754 E.05124
G1 X125.817 Y70.754 E.05124
G1 X127.45 Y70.822 E.05124
G1 X129.333 Y70.978 E.05926
G1 X129.952 Y70.021 E.03574
G1 X130.408 Y69.369 E.02494
G1 X130.882 Y68.734 E.02485
G1 X131.376 Y68.117 E.02475
G1 X131.887 Y67.52 E.02465
G1 X132.415 Y66.942 E.02456
G1 X132.96 Y66.383 E.02446
G1 X133.522 Y65.845 E.02442
G1 X134.101 Y65.326 E.02436
G1 X134.694 Y64.829 E.02426
G1 X135.301 Y64.355 E.02413
G1 X135.919 Y63.905 E.02397
G1 X136.547 Y63.479 E.0238
G1 X137.187 Y63.077 E.02368
G1 X137.839 Y62.698 E.02367
G1 X138.503 Y62.343 E.02359
G1 X139.175 Y62.013 E.02348
G1 X139.854 Y61.708 E.02334
G1 X140.538 Y61.429 E.02317
G1 X141.227 Y61.177 E.02299
G1 X141.922 Y60.95 E.02293
G1 X142.626 Y60.749 E.02295
G1 X143.335 Y60.573 E.0229
G1 X144.047 Y60.424 E.02281
G1 X144.76 Y60.302 E.0227
G1 X145.473 Y60.206 E.02256
G1 X146.184 Y60.137 E.02239
G1 X146.894 Y60.094 E.0223
G1 X147.608 Y60.078 E.02239
G1 X148.29 Y60.089 E.02138
G1 X149.035 Y60.127 E.02341
G1 X149.745 Y60.191 E.02233
G1 X150.449 Y60.281 E.02226
G1 X151.146 Y60.398 E.02216
G1 X151.835 Y60.539 E.02205
G1 X152.521 Y60.708 E.02215
G1 X153.204 Y60.903 E.02225
G1 X153.88 Y61.126 E.02231
G1 X154.548 Y61.374 E.02234
G1 X155.206 Y61.647 E.02235
G1 X155.853 Y61.945 E.02233
G1 X156.487 Y62.266 E.02227
G1 X157.11 Y62.612 E.02237
G1 X157.724 Y62.985 E.02252
G1 X158.327 Y63.382 E.02263
G1 X158.916 Y63.805 E.02273
